X: 301
M: C
L: 1/8
K: D
V: 1
    F>AD>A F>GAG | FA Df/d/ {c}B2Bc | d<fc<e B<dA>F | (B/A/).G/.F/ d>F D2D |]
V: 2 clef=bass middle=d
z | [d2D2][d2D2] [d2D2][d2D2] | [d2D2][d2D2] [g2G2][g2G2] |\
    [d2D2][d2D2] [d2D2][d2D2] | [g2G2][^g2^G2] [a2A2][aA] :|
z | [d2D2][d2D2] [d2D2][d2D2] | [d2D2][f2F2] [g2G2][g2G2] |\
    d2f2 g2G2 | g2d2 c2A2 |
	[d2D2][d2D2] [d2D2][d2D2] | [d2D2][f2F2] [g2G2][g2G2] |\
	[d2D2][a2A2] [g2G2][f2F2] | [g2G2][a2A2] [d2D2][dD] :\


